X:1
T:Jesus Sweetly Saves (Morris)
T:Jesus Sweetly Saves (Morris)
T:Lelia Naylor Morris
T:Lelia N. Morris & Henry L. Gilmour, 1899
T:Public Domain Courtesy of the Cyber Hymnal™
T:Public Domain Courtesy of the Cyber Hymnal™
C:Lelia Naylor Morris
Z:Public Domain
Z:Courtesy of the Cyber Hymnal™
%%score ( 1 2 ) ( 3 4 )
L:1/8
Q:1/4=98
M:4/4
K:D
V:1 treble 
V:2 treble 
V:3 bass 
V:4 bass 
V:1
 D>[DE] | [DF]>[DF] [DF]>[CE] D2 D>[DF] | [FA]>[FA] [FA]>[DG] [DF]2 [EG]>[DF] | %3
w: 1.~I had|heard the Gos- pel call, Of- fering|par- don free for all, And I|
w: 2.~Now the|load of sin is gone, And by|faith I tra- vel on, And I|
w: 3.~From the|mire and from the clay, Je- sus|took my feet a- way, And He|
w: 4.~When I|reach the gold- en street, And the|loved ones glad- ly meet, The re-|
 [CE]>[CE] [CE]>[DF] [EG]>[FA] [GB]>[Gc] | [Fd]4 [FA]2 [FA]>[FA] | [Fd]>[Fd] [Fd]>[Fd] | %6
w: heark- ened to the bless- èd in- vi-|ta- tion; Laid my|sins at Je- sus’|
w: rest no long- er un- der con- dem-|na- tion; For the|blood has been ap-|
w: placed them on the Rock, The sure Foun-|da- tion; Whe- ther|now I live or|
w: deemed which came out of great tri- bu-|la- tion, Hav- ing|washed their gar- ments|
 [Ec]2 [Fd]>[Ec] | [DB]>[DB] [Dd]>[GB] [FA]2 D>[DE] | [DF]>[EG] [FA]>[GB] [FA]>[EG] [DF]>D | %9
w: feet, Tast- ed|there re- demp- tion sweet, And He|saved me with an ut- ter- most sal-|
w: plied, And my|soul is sa- tis- fied, With this|full, and free, this ut- ter- most sal-|
w: die, This shall|be my con- stant cry: Je- sus|saves me with an ut- ter- most sal-|
w: white, Prais- ing|God both day and night, For this|full, and free, this ut- ter- most sal-|
 [CE]4 !fermata!D2 ||"^Refrain" [FA]>[FA] | [Fd]6 [Ac]>[GB] | [FA]6 [FA]>[FA] | %13
w: va- tion.||||
w: va- tion.|Je- sus|saves, sweet- ly|saves, Je- sus|
w: va- tion.||||
w: va- tion.||||
 [GB]>[GB] [GB]>[GB] [GB]>[FA] [DF]>D | [DF]4 [CE]2 [CE]>[DF] | %15
w: ||
w: saves me with an ut- ter- most sal-|va- tion; Tho’ I|
w: ||
w: ||
 [EG]>[EG] [DF]>[CE] [DF]2 [DF]>[EG] | [FA]>[FA] [Ad]>[Ac] !fermata![GB]2 [Gc]>[Gd] | %17
w: ||
w: can- not tell you how, Je- sus|sweet- ly saves me now, With a|
w: ||
w: ||
 [Fd]>[Fd] [FA]>[DF] [CA]>[CA] [CG]>C | [CE]4 !fermata!D2 |] %19
w: ||
w: full, and free, an ut- ter- most sal-|va- tion.|
w: ||
w: ||
V:2
 D3/2 x/ | x4 D2 D3/2 x/ | x8 | x8 | x8 | x4 | x4 | x6 D3/2 x/ | x15/2 D/ | x4 D2 || x2 | x8 | x8 | %13
 x15/2 D/ | x8 | x8 | x8 | x15/2 C/ | x4 D2 |] %19
V:3
 [D,F,]>[D,G,] | [D,A,]>[D,A,] [D,A,]>[D,G,] [D,F,]2 [D,F,]>[D,A,] | %2
w: ~ ~|~ ~ ~ ~ ~ ~ ~|
 [D,D]>[D,D] [D,D]>[D,B,] [D,A,]2 [C,A,]>[D,A,] | %3
w: ~ ~ ~ ~ ~ ~ ~|
 [A,,A,]>[A,,A,] [A,,A,]>[A,,A,] [A,,A,]>[A,,A,] [A,,A,]>[A,,A,] | [D,A,]4 [D,D]2 [D,D]>[D,D] | %5
w: ~ ~ ~ ~ ~ ~ ~ ~|~ ~ ~ ~|
 [B,D]>[B,D] [B,D]>B, | [F,^A,]2 [F,A,]>[F,A,] | [G,B,]>[G,B,] [G,B,]>[G,D] [D,D]2 [D,F,]>[D,G,] | %8
w: ~ ~ ~ ~|~ ~ ~|~ ~ ~ ~ ~ ~ ~|
 [D,A,]>[D,A,] [D,D]>[D,D] [D,D]>[D,A,] [D,A,]>[D,F,] | (A,2 G,2) !fermata![D,F,]2 || z2 | %11
w: ~ ~ ~ ~ ~ ~ ~ ~|~ * ~||
 z2 [D,A,]>[D,A,] [D,A,]2 z2 | z2 [D,D]>[D,D] [D,D]2 [D,D]>[D,D] | %13
w: Je- sus saves,|sweet- ly saves, * *|
 [G,D]>[G,D] [G,D]>[G,D] [D,D]>[D,D] [D,A,]>[D,F,] | [A,,A,]4 [A,,A,]2 [A,,A,]>[A,,A,] | %15
w: ||
 [A,,A,]>[A,,A,] [A,,A,]>[A,,A,] [D,A,]2 [D,A,]>[D,A,] | %16
w: |
 [D,D]>[D,D] [F,D]>[F,D] !fermata![G,D]2 [G,B,]>[G,B,] | %17
w: |
 A,>A, [A,D]>A, [A,,A,]>[A,,A,] [A,,E,]>[A,,A,] | A,2 G,2 !fermata![D,F,]2 |] %19
w: ||
V:4
 x2 | x8 | x8 | x8 | x8 | x7/2 B,/ | x4 | x8 | x8 | A,,4 x2 || x2 | x8 | x8 | x8 | x8 | x8 | x8 | %17
 A,>A, x A,/ x9/2 | A,,4 x2 |] %19

